assets/icons/24px/stroke/question-mark-with-circle-24px.svg

<svg width="24" height="24" viewBox="0 0 24 24" fill="none" xmlns="http://www.w3.org/2000/svg">
<path fill-rule="evenodd" clip-rule="evenodd" d="M12 4C7.58172 4 4 7.58172 4 12C4 16.4183 7.58172 20 12 20C16.4183 20 20 16.4183 20 12C20 7.58172 16.4183 4 12 4ZM2 12C2 6.47715 6.47715 2 12 2C17.5228 2 22 6.47715 22 12C22 17.5228 17.5228 22 12 22C6.47715 22 2 17.5228 2 12Z" fill="white"/>
<path d="M13 17C13 17.5523 12.5523 18 12 18C11.4477 18 11 17.5523 11 17C11 16.4477 11.4477 16 12 16C12.5523 16 13 16.4477 13 17Z" fill="white"/>
<g filter="url(#filter0_d_878_23170)">
<path fill-rule="evenodd" clip-rule="evenodd" d="M12 6.125C13.4516 6.12501 15.1105 6.95348 15.4806 8.80387C15.6487 9.64447 15.5267 10.374 15.2114 10.993C14.9092 11.5861 14.4595 12.0184 14.0708 12.3364C13.8749 12.4967 13.6781 12.6407 13.513 12.7614C13.3384 12.8891 13.2074 12.9849 13.099 13.0747C13.0559 13.1104 13.0237 13.1394 13 13.1622V14C13 14.5523 12.5523 15 12 15C11.4477 15 11 14.5523 11 14V13C11 12.2413 11.5586 11.7537 11.8229 11.5347C11.9798 11.4047 12.1551 11.2766 12.3089 11.1642C12.3169 11.1584 12.3248 11.1526 12.3327 11.1468C12.5016 11.0234 12.6564 10.9095 12.8043 10.7885C13.1031 10.5441 13.3096 10.3201 13.4293 10.0851C13.5358 9.87598 13.6013 9.6055 13.5194 9.19611C13.3895 8.54654 12.7984 8.125 12 8.125C11.2016 8.125 10.6105 8.54652 10.4806 9.19609C10.3723 9.73765 9.84545 10.0889 9.30389 9.98055C8.76233 9.87224 8.41112 9.34541 8.51943 8.80385C8.88951 6.95344 10.5484 6.12499 12 6.125ZM12.9414 13.2251C12.9413 13.2251 12.9421 13.224 12.9438 13.2217C12.9423 13.224 12.9415 13.2251 12.9414 13.2251Z" fill="white"/>
</g>
<defs>
<filter id="filter0_d_878_23170" x="4.49982" y="6.125" width="15.0563" height="16.875" filterUnits="userSpaceOnUse" color-interpolation-filters="sRGB">
<feFlood flood-opacity="0" result="BackgroundImageFix"/>
<feColorMatrix in="SourceAlpha" type="matrix" values="0 0 0 0 0 0 0 0 0 0 0 0 0 0 0 0 0 0 127 0" result="hardAlpha"/>
<feOffset dy="4"/>
<feGaussianBlur stdDeviation="2"/>
<feComposite in2="hardAlpha" operator="out"/>
<feColorMatrix type="matrix" values="0 0 0 0 0 0 0 0 0 0 0 0 0 0 0 0 0 0 0.25 0"/>
<feBlend mode="normal" in2="BackgroundImageFix" result="effect1_dropShadow_878_23170"/>
<feBlend mode="normal" in="SourceGraphic" in2="effect1_dropShadow_878_23170" result="shape"/>
</filter>
</defs>
</svg>

<svg width="24" height="24" fill="none" xmlns="http://www.w3.org/2000/svg"><path fill-rule="evenodd" clip-rule="evenodd" d="M12 4a8 8 0 1 0 0 16 8 8 0 0 0 0-16zM2 12C2 6.477 6.477 2 12 2s10 4.477 10 10-4.477 10-10 10S2 17.523 2 12z" fill="#fff"/><path d="M13 17a1 1 0 1 1-2 0 1 1 0 0 1 2 0z" fill="#fff"/><path fill-rule="evenodd" clip-rule="evenodd" d="M12 6.125c1.452 0 3.11.828 3.48 2.679.169.84.047 1.57-.269 2.189-.302.593-.752 1.025-1.14 1.343-.196.16-.393.305-.558.425-.175.128-.306.224-.414.314a1.798 1.798 0 0 0-.099.087V14a1 1 0 1 1-2 0v-1c0-.759.559-1.246.823-1.465.157-.13.332-.258.486-.37l.024-.018c.169-.124.323-.238.471-.358.3-.245.506-.469.625-.704.107-.209.172-.48.09-.889-.13-.65-.72-1.071-1.519-1.071-.798 0-1.39.422-1.52 1.071a1 1 0 1 1-1.96-.392c.37-1.85 2.028-2.679 3.48-2.679zm.941 7.1z" fill="#fff" filter="url(#filter0_d_878_23170)"/><defs><filter id="filter0_d_878_23170" x="4.5" y="6.125" width="15.056" height="16.875" filterUnits="userSpaceOnUse" color-interpolation-filters="sRGB"><feFlood flood-opacity="0" result="BackgroundImageFix"/><feColorMatrix in="SourceAlpha" values="0 0 0 0 0 0 0 0 0 0 0 0 0 0 0 0 0 0 127 0" result="hardAlpha"/><feOffset dy="4"/><feGaussianBlur stdDeviation="2"/><feComposite in2="hardAlpha" operator="out"/><feColorMatrix values="0 0 0 0 0 0 0 0 0 0 0 0 0 0 0 0 0 0 0.25 0"/><feBlend in2="BackgroundImageFix" result="effect1_dropShadow_878_23170"/><feBlend in="SourceGraphic" in2="effect1_dropShadow_878_23170" result="shape"/></filter></defs></svg>
